packages/ui/app/images/icons/max.svg

<?xml version="1.0" encoding="UTF-8"?>
<svg width="15px" height="15px" viewBox="0 0 15 15" version="1.1" xmlns="http://www.w3.org/2000/svg" xmlns:xlink="http://www.w3.org/1999/xlink">
    <!-- Generator: Sketch 52.5 (67469) - http://www.bohemiancoding.com/sketch -->
    <title>最大化 (2)</title>
    <desc>Created with Sketch.</desc>
    <g id="0428-组件" stroke="none" stroke-width="1" fill="none" fill-rule="evenodd">
        <g id="集群事件" transform="translate(-1331.000000, -80.000000)" fill="#40B7E8" fill-rule="nonzero">
            <g id="最大化-(2)" transform="translate(1331.000000, 80.000000)">
                <path d="M4.8772757,9.14919517 L4.8873557,9.12087517 L4.9094357,9.15879517 L4.9094357,9.17367517 L4.8772757,9.14919517 Z M5.25224268,8.96234631 L5.26040268,8.93642631 L5.28056268,8.97050631 L5.28056268,8.98346631 L5.25224268,8.96234631 Z M12.3237943,3.02180109 C12.3414087,3.06326983 12.3503785,3.10779347 12.3504435,3.1528371 L12.3504435,5.89913334 C12.350623,6.09086143 12.1953421,6.24643325 12.0036141,6.24661274 C11.811886,6.24679223 11.6563141,6.09151141 11.6561346,5.89978332 L11.6561346,3.9920915 L8.76021297,6.88892315 C8.67250516,6.97663097 8.54466823,7.01088478 8.42485713,6.97878149 C8.30504602,6.9466782 8.2114629,6.85309508 8.17935961,6.73328397 C8.14725632,6.61347286 8.18151013,6.48563594 8.26921795,6.39792813 L11.1659196,3.50213644 L9.25894276,3.50213644 C9.07043734,3.49766833 8.91995112,3.3435729 8.91995112,3.15501453 C8.91995112,2.96645616 9.07043734,2.81236073 9.25894276,2.80789262 L12.004329,2.80789262 C12.0181086,2.80945257 12.0316282,2.81205249 12.0450178,2.81582238 C12.0761518,2.81783731 12.1068959,2.82407712 12.13634,2.83441181 C12.2215033,2.86976912 12.2891875,2.93743 12.3245743,3.02258107 L12.3237943,3.02180109 Z M2.14179866,0.854174497 C1.40561074,0.854174497 0.804805369,1.48880537 0.804805369,2.26840268 L0.804805369,12.7311946 C0.804805369,13.5113557 1.40504698,14.1456644 2.14179866,14.1456644 L12.8527248,14.1456644 C13.5899597,14.1456644 14.1897181,13.5110336 14.1897181,12.7311946 L14.1897181,2.26840268 C14.1897181,1.48880537 13.5900403,0.854174497 12.8527248,0.854174497 L2.14179866,0.854174497 Z M12.8527248,14.9897718 L2.14179866,14.9897718 C0.964671141,14.9897718 0.0075704698,13.9762953 0.0075704698,12.730953 L0.0075704698,2.26840268 C0.00748993289,1.02257718 0.964832215,0.0100671141 2.14179866,0.0100671141 L12.8527248,0.0100671141 C14.0297718,0.0100671141 14.9871946,1.02289933 14.9871946,2.26840268 L14.9871946,12.7311946 C14.9871946,13.9769396 14.0297718,14.9900134 12.8527248,14.9900134 L12.8527248,14.9897718 Z M2.91306205,12.057761 C2.89547045,12.0162522 2.88640872,11.9716287 2.88641611,11.926546 L2.88914569,9.17720487 C2.88889444,8.98528479 3.04427274,8.82949914 3.23619282,8.82924789 C3.42811291,8.82899664 3.58389856,8.98437492 3.58414981,9.17629501 L3.58246007,11.0856391 L6.47562431,8.19156503 C6.61100708,8.05804171 6.82860114,8.05823963 6.96374078,8.19200901 C7.09888041,8.32577839 7.10129582,8.54335914 6.96915913,8.6800956 L6.96629956,8.68302016 L4.07222546,11.5770293 L5.98195952,11.5744947 C6.17201189,11.5772985 6.32454858,11.732276 6.32433528,11.9223489 C6.32412197,12.1124218 6.17123782,12.2670565 5.98117964,12.2694338 L3.23274834,12.2723583 C3.21895858,12.2708114 3.20531189,12.268182 3.19193456,12.2644945 C3.16076464,12.2624969 3.1300177,12.2562207 3.10055848,12.2458424 C3.01540214,12.2105507 2.94773323,12.1429052 2.91241215,12.057761 L2.91306205,12.057761 Z" id="形状"></path>
            </g>
        </g>
    </g>
</svg>

<svg width="15" height="15" xmlns="http://www.w3.org/2000/svg">
  <path d="M4.877 9.15l.01-.03.022.039v.015l-.032-.025zm.375-.188l.008-.026.02.035v.012l-.028-.02zm7.072-5.94a.336.336 0 01.026.13V5.9a.347.347 0 01-.694 0V3.993L8.76 6.89a.347.347 0 11-.49-.491l2.896-2.896H9.259a.347.347 0 010-.694h2.745a.256.256 0 01.041.008.343.343 0 01.091.018.349.349 0 01.189.189l-.001-.001zM2.142.854C1.406.854.805 1.49.805 2.268v10.463c0 .78.6 1.415 1.337 1.415h10.71c.738 0 1.338-.635 1.338-1.415V2.268c0-.78-.6-1.414-1.337-1.414H2.142zm10.71 14.136H2.143C.965 14.99.008 13.976.008 12.73V2.268C.008 1.023.965.01 2.142.01h10.71c1.178 0 2.135 1.013 2.135 2.258v10.463c0 1.246-.957 2.259-2.134 2.259zm-9.939-2.932a.336.336 0 01-.027-.131l.003-2.75a.348.348 0 01.695 0l-.002 1.909 2.894-2.894a.347.347 0 01.493.488l-.003.003-2.894 2.894 1.91-.003a.348.348 0 010 .695l-2.75.003a.265.265 0 01-.04-.008.34.34 0 01-.091-.018.348.348 0 01-.189-.188h.001z" fill="#40B7E8" fill-rule="nonzero"/>
</svg>
